Origami/64x64/apps/subdownloader.svg

<svg width="64" height="64" version="1" xmlns="http://www.w3.org/2000/svg">
 <path d="m4.0012006 44.50029v1.999957c0 1.723963 1.3871702 3.433926 3.1093333 3.499925h25.889445l6.999849 7.999828 6.99985-7.999828h9.889788c1.723963 0 3.109933-1.775962 3.109933-3.499925v-1.999957c0 1.723963-1.38597 3.499924-3.109933 3.499924h-9.889788l-6.99985 7.999829-6.999849-7.999829h-25.889445c-1.723363-0.066-3.1105333-1.775961-3.1105333-3.499924z" style="opacity:.2"/>
 <path d="m7.1123339 7.0011154c-1.7235631 0-3.1111333 1.7763619-3.1111333 3.4999246v34.99925c0 1.723963 1.3887702 3.433926 3.1111333 3.499924h25.887445l6.999849 7.999829 6.99985-7.999829h9.888588c1.723963 0 3.111933-1.775961 3.111933-3.499924v-34.99925c0-1.7235627-1.38797-3.4999246-3.111933-3.4999246z" style="fill:#4f4f4f"/>
 <path d="m20 18v2h24v-2h-24zm0 6v2h24v-2h-24zm0 6v2h24v-2h-24zm0 6v2h16v-2h-16z" style="opacity:.2"/>
 <path d="m20 17v2h24v-2h-24zm0 6v2h24v-2h-24zm0 6v2h24v-2h-24zm0 6v2h16v-2h-16z" style="fill:#ffc04b"/>
 <path d="m7.1113281 7.0019531c-1.723563 0-3.109375 1.7764373-3.109375 3.4999999v1c0-1.7235626 1.385812-3.4999999 3.109375-3.4999999h49.777344c1.723963 0 3.111328 1.7764373 3.111328 3.4999999v-1c0-1.7235626-1.387365-3.4999999-3.111328-3.4999999h-49.777344z" style="fill:#ffffff;opacity:.1"/>
</svg>

<svg xmlns="http://www.w3.org/2000/svg" width="64" height="64" version="1">
 <path style="opacity:0.2" d="m 4.0012006,44.50029 0,1.999957 c 0,1.723963 1.3871702,3.433926 3.1093333,3.499925 l 25.8894451,0 L 39.999828,58 l 6.99985,-7.999828 9.889788,0 c 1.723963,0 3.109933,-1.775962 3.109933,-3.499925 l 0,-1.999957 c 0,1.723963 -1.38597,3.499924 -3.109933,3.499924 l -9.889788,0 -6.99985,7.999829 -6.999849,-7.999829 -25.8894451,0 c -1.723363,-0.066 -3.1105333,-1.775961 -3.1105333,-3.499924 z"/>
 <path style="fill:#4f4f4f" d="m 7.1123339,7.0011154 c -1.7235631,0 -3.1111333,1.7763619 -3.1111333,3.4999246 l 0,34.99925 c 0,1.723963 1.3887702,3.433926 3.1111333,3.499924 l 25.8874451,0 6.999849,7.999829 6.99985,-7.999829 9.888588,0 c 1.723963,0 3.111933,-1.775961 3.111933,-3.499924 l 0,-34.99925 c 0,-1.7235627 -1.38797,-3.4999246 -3.111933,-3.4999246 z"/>
 <path style="opacity:0.2" d="m 20,18 0,2 24,0 0,-2 -24,0 z m 0,6 0,2 24,0 0,-2 -24,0 z m 0,6 0,2 24,0 0,-2 -24,0 z m 0,6 0,2 16,0 0,-2 -16,0 z"/>
 <path style="fill:#ffc04b" d="M 20 17 L 20 19 L 44 19 L 44 17 L 20 17 z M 20 23 L 20 25 L 44 25 L 44 23 L 20 23 z M 20 29 L 20 31 L 44 31 L 44 29 L 20 29 z M 20 35 L 20 37 L 36 37 L 36 35 L 20 35 z"/>
 <path style="opacity:0.1;fill:#ffffff" d="M 7.1113281 7.0019531 C 5.3877651 7.0019531 4.0019531 8.7783904 4.0019531 10.501953 L 4.0019531 11.501953 C 4.0019531 9.7783904 5.3877651 8.0019531 7.1113281 8.0019531 L 56.888672 8.0019531 C 58.612635 8.0019531 60 9.7783904 60 11.501953 L 60 10.501953 C 60 8.7783904 58.612635 7.0019531 56.888672 7.0019531 L 7.1113281 7.0019531 z"/>
</svg>
